X: 3405
T: Bert Mackenzie's 70th Birthday
R: waltz
M: 3/4
K: Dmajor
(3(ABd)|"D"F2 F>E F>A|"Bm"F2 F>E F>A|"G"B2 B>d "A"B>A|"D"F A3 d>c|
"G"B2 B>d "A"B>A|"D"F3 E D>B|"Em"A3 F G>F|"A"E A3 (3(ABd)|
"D"F2 F>E F>A|"Bm"F2 F>E F>A|"G"B2 B>d "A"B>A|"D"F A3 d>c|
"G"B2 B>d "A"B>A|"D"F3 E D>B|"Em"A3 F "A"E>D|"D"D4:|
|:d>c|"G"B2 B>d "A"B>A|"D"F A3 d>c|"G"B2 B>c d>e|"Bm"f2 f>a (3(fed)|
"G"B2 B>c d>B|"D"A F3 E>D|"Em"A3 F G>F|"A"E A3 (3(ABd)|
"D"F2 F>E F>A|"Bm"F2 F>E F>A|"G"B2 B>d "A"B>A|"D"F A3 d>c|
"G"B2 B>d "A"B>A|"D"F3 E D>B|"Em"A3 F "A"E>D|"D"D4:|

